; generated by PrusaSlicer 2.6.1+win64 on 2024-05-03 at 01:25:39 UTC


;
;
; 

; external perimeters extrusion width = 0.45mm
; perimeters extrusion width = 0.45mm
; infill extrusion width = 0.45mm
; solid infill extrusion width = 0.45mm
; top infill extrusion width = 0.40mm
; first layer extrusion width = 0.42mm

M73 P0 R72
M73 Q0 S73
M201 X1000 Y1000 Z200 E5000 ; sets maximum accelerations, mm/sec^2
M203 X200 Y200 Z12 E120 ; sets maximum feedrates, mm / sec
M204 S1250 T1250 ; sets acceleration (S) and retract acceleration (R), mm/sec^2
M205 X8.00 Y8.00 Z0.40 E4.50 ; sets the jerk limits, mm/sec
M205 S0 T0 ; sets the minimum extruding and travel feed rate, mm/sec
;TYPE:Custom
M862.3 P "MK3SMMU2S" ; printer model check
M862.1 P0.4 ; nozzle diameter check
M115 U3.13.1 ; tell printer latest fw version
G90 ; use absolute coordinates
M83 ; extruder relative mode
M104 S215 ; set extruder temp
M140 S60 ; set bed temp
Tx
M190 S60 ; wait for bed temp
M109 S215 ; wait for extruder temp
G28 W ; home all without mesh bed level
G80 ; mesh bed leveling

;go outside print area
G1 Y-3 F1000
G1 Z0.4 F1000
; select extruder
Tc
; purge line
G1 X55 F2000
G1 Z0.3 F1000
G92 E0
G1 X240 E25 F2200
G1 Y-2 F1000
G1 X55 E25 F1400
G1 Z0.2 F1000
M73 Q0 S72
G1 X5 E4 F1000

M221 S95
G92 E0

; Don't change E values below. Excessive value can damage the printer.
M907 E430 ; set extruder motor current
G21 ; set units to millimeters
G90 ; use absolute coordinates
M83 ; use relative distances for extrusion
M900 K0.05 ; Filament gcode LA 1.5
M900 K30 ; Filament gcode LA 1.0
M107
;LAYER_CHANGE
;Z:0.2
;HEIGHT:0.2
;BEFORE_LAYER_CHANGE
G92 E0.0
;0.2


G1 E-.8 F2100
G1 Z.4 F720
;AFTER_LAYER_CHANGE
;0.2
G1 X98.015 Y63.693 F10800
G1 Z.2 F720
G1 E.8 F2100
M204 S800
;TYPE:Skirt/Brim
;WIDTH:0.42
G1 F1200
G1 X99.06 Y62.817 E.04275
G1 X100 Y62.623 E.03009
G1 X150 Y62.623 E1.56771
G1 X151.307 Y63.015 E.04278
G1 X152.183 Y64.06 E.04275
G1 X152.377 Y65 E.03009
G1 X152.377 Y145 E2.50834
G1 X151.985 Y146.307 E.04278
G1 X150.94 Y147.183 E.04275
G1 X150 Y147.377 E.03009
G1 X100 Y147.377 E1.56771
G1 X98.693 Y146.985 E.04278
G1 X97.817 Y145.94 E.04275
G1 X97.623 Y145 E.03009
G1 X97.623 Y65 E2.50834
G1 X97.997 Y63.75 E.04091
M204 S1000
; printing object brick.stl id:0 copy 0
;WIPE_START
G1 F8640
G1 X99.06 Y62.817 E-.32658
G1 X100 Y62.623 E-.22162
G1 X101.091 Y62.623 E-.2518
;WIPE_END
G1 Z.6 F720
G1 X149.213 Y144.213 F10800
G1 Z.2 F720
G1 E.8 F2100
M204 S800
;TYPE:Perimeter
;WIDTH:0.419999
G1 F1200
G1 X100.787 Y144.213 E1.51836
G1 X100.787 Y65.787 E2.45899
G1 X149.213 Y65.787 E1.51836
G1 X149.213 Y144.153 E2.45711
M204 S1000
G1 X149.59 Y144.59 F10800
M204 S800
;TYPE:External perimeter
M73 P1 R72
M73 Q1 S72
G1 F1200
G1 X100.41 Y144.59 E1.542
G1 X100.41 Y65.41 E2.48263
G1 X149.59 Y65.41 E1.542
M73 P1 R71
G1 X149.59 Y144.53 E2.48075
M204 S1000
G1 X149.213 Y144.457 F10800
;WIPE_START
G1 F8640
G1 X146.125 Y144.534 E-.8
;WIPE_END
G1 Z.6 F720
G1 X148.278 Y65.957 F10800
G1 Z.2 F720
G1 E.8 F2100
M204 S800
;TYPE:Solid infill
;WIDTH:0.421187
G1 F1200
G1 X148.874 Y66.552 E.02649
G1 X148.874 Y67.087 E.01683
G1 X147.913 Y66.126 E.04275
G1 X147.378 Y66.126 E.01683
G1 X148.874 Y67.622 E.06654
G1 X148.874 Y68.157 E.01683
G1 X146.843 Y66.126 E.09034
G1 X146.308 Y66.126 E.01683
G1 X148.874 Y68.692 E.11414
G1 X148.874 Y69.227 E.01683
G1 X145.773 Y66.126 E.13794
G1 X145.238 Y66.126 E.01683
G1 X148.874 Y69.762 E.16173
G1 X148.874 Y70.297 E.01683
G1 X144.703 Y66.126 E.18553
G1 X144.169 Y66.126 E.0168
G1 X148.874 Y70.831 E.20928
G1 X148.874 Y71.366 E.01683
G1 X143.634 Y66.126 E.23308
G1 X143.099 Y66.126 E.01683
G1 X148.874 Y71.901 E.25688
G1 X148.874 Y72.436 E.01683
G1 X142.564 Y66.126 E.28068
G1 X142.029 Y66.126 E.01683
G1 X148.874 Y72.971 E.30447
G1 X148.874 Y73.506 E.01683
G1 X141.494 Y66.126 E.32827
G1 X140.959 Y66.126 E.01683
G1 X148.874 Y74.041 E.35207
G1 X148.874 Y74.576 E.01683
G1 X140.424 Y66.126 E.37587
G1 X139.889 Y66.126 E.01683
G1 X148.874 Y75.111 E.39966
G1 X148.874 Y75.646 E.01683
G1 X139.354 Y66.126 E.42346
G1 X138.819 Y66.126 E.01683
G1 X148.874 Y76.181 E.44726
G1 X148.874 Y76.716 E.01683
G1 X138.284 Y66.126 E.47106
G1 X137.749 Y66.126 E.01683
G1 X148.874 Y77.251 E.49485
G1 X148.874 Y77.786 E.01683
G1 X137.214 Y66.126 E.51865
G1 X136.679 Y66.126 E.01683
M73 Q1 S71
G1 X148.874 Y78.321 E.54245
G1 X148.874 Y78.856 E.01683
G1 X136.144 Y66.126 E.56625
G1 X135.609 Y66.126 E.01683
G1 X148.874 Y79.391 E.59004
G1 X148.874 Y79.926 E.01683
G1 X135.074 Y66.126 E.61384
G1 X134.539 Y66.126 E.01683
G1 X148.874 Y80.461 E.63764
G1 X148.874 Y80.996 E.01683
G1 X134.004 Y66.126 E.66144
G1 X133.47 Y66.126 E.0168
G1 X148.874 Y81.53 E.68519
G1 X148.874 Y82.065 E.01683
G1 X132.935 Y66.126 E.70899
G1 X132.4 Y66.126 E.01683
G1 X148.874 Y82.6 E.73278
G1 X148.874 Y83.135 E.01683
G1 X131.865 Y66.126 E.75658
G1 X131.33 Y66.126 E.01683
G1 X148.874 Y83.67 E.78038
G1 X148.874 Y84.205 E.01683
G1 X130.795 Y66.126 E.80418
G1 X130.26 Y66.126 E.01683
G1 X148.874 Y84.74 E.82797
G1 X148.874 Y85.275 E.01683
G1 X129.725 Y66.126 E.85177
G1 X129.19 Y66.126 E.01683
G1 X148.874 Y85.81 E.87557
G1 X148.874 Y86.345 E.01683
M73 P2 R71
M73 Q2 S71
G1 X128.655 Y66.126 E.89937
G1 X128.12 Y66.126 E.01683
G1 X148.874 Y86.88 E.92316
G1 X148.874 Y87.415 E.01683
G1 X127.585 Y66.126 E.94696
G1 X127.05 Y66.126 E.01683
G1 X148.874 Y87.95 E.97076
G1 X148.874 Y88.485 E.01683
G1 X126.515 Y66.126 E.99456
G1 X125.98 Y66.126 E.01683
G1 X148.874 Y89.02 E1.01835
G1 X148.874 Y89.555 E.01683
G1 X125.445 Y66.126 E1.04215
G1 X124.91 Y66.126 E.01683
G1 X148.874 Y90.09 E1.06595
G1 X148.874 Y90.625 E.01683
G1 X124.375 Y66.126 E1.08975
G1 X123.84 Y66.126 E.01683
G1 X148.874 Y91.16 E1.11354
G1 X148.874 Y91.695 E.01683
G1 X123.305 Y66.126 E1.13734
G1 X122.771 Y66.126 E.0168
G1 X148.874 Y92.229 E1.1611
G1 X148.874 Y92.764 E.01683
G1 X122.236 Y66.126 E1.18489
G1 X121.701 Y66.126 E.01683
G1 X148.874 Y93.299 E1.20869
G1 X148.874 Y93.834 E.01683
M73 P2 R70
G1 X121.166 Y66.126 E1.23249
G1 X120.631 Y66.126 E.01683
G1 X148.874 Y94.369 E1.25629
G1 X148.874 Y94.904 E.01683
G1 X120.096 Y66.126 E1.28008
G1 X119.561 Y66.126 E.01683
G1 X148.874 Y95.439 E1.30388
G1 X148.874 Y95.974 E.01683
G1 X119.026 Y66.126 E1.32768
G1 X118.491 Y66.126 E.01683
G1 X148.874 Y96.509 E1.35148
G1 X148.874 Y97.044 E.01683
G1 X117.956 Y66.126 E1.37527
G1 X117.421 Y66.126 E.01683
G1 X148.874 Y97.579 E1.39907
G1 X148.874 Y98.114 E.01683
G1 X116.886 Y66.126 E1.42287
G1 X116.351 Y66.126 E.01683
M73 P3 R70
M73 Q3 S70
G1 X148.874 Y98.649 E1.44667
G1 X148.874 Y99.184 E.01683
G1 X115.816 Y66.126 E1.47046
G1 X115.281 Y66.126 E.01683
G1 X148.874 Y99.719 E1.49426
G1 X148.874 Y100.254 E.01683
G1 X114.746 Y66.126 E1.51806
G1 X114.211 Y66.126 E.01683
G1 X148.874 Y100.789 E1.54186
G1 X148.874 Y101.324 E.01683
G1 X113.676 Y66.126 E1.56565
G1 X113.141 Y66.126 E.01683
G1 X148.874 Y101.859 E1.58945
G1 X148.874 Y102.394 E.01683
G1 X112.606 Y66.126 E1.61325
G1 X112.072 Y66.126 E.0168
G1 X148.874 Y102.928 E1.637
G1 X148.874 Y103.463 E.01683
G1 X111.537 Y66.126 E1.6608
G1 X111.002 Y66.126 E.01683
G1 X148.874 Y103.998 E1.6846
G1 X148.874 Y104.533 E.01683
G1 X110.467 Y66.126 E1.70839
G1 X109.932 Y66.126 E.01683
G1 X148.874 Y105.068 E1.73219
G1 X148.874 Y105.603 E.01683
G1 X109.397 Y66.126 E1.75599
G1 X108.862 Y66.126 E.01683
G1 X148.874 Y106.138 E1.77979
G1 X148.874 Y106.673 E.01683
G1 X108.327 Y66.126 E1.80358
G1 X107.792 Y66.126 E.01683
M73 P3 R69
G1 X148.874 Y107.208 E1.82738
G1 X148.874 Y107.743 E.01683
M73 P4 R69
M73 Q4 S70
G1 X107.257 Y66.126 E1.85118
G1 X106.722 Y66.126 E.01683
G1 X148.874 Y108.278 E1.87498
G1 X148.874 Y108.813 E.01683
G1 X106.187 Y66.126 E1.89877
G1 X105.652 Y66.126 E.01683
G1 X148.874 Y109.348 E1.92257
G1 X148.874 Y109.883 E.01683
G1 X105.117 Y66.126 E1.94637
G1 X104.582 Y66.126 E.01683
M73 Q4 S69
G1 X148.874 Y110.418 E1.97017
G1 X148.874 Y110.953 E.01683
G1 X104.047 Y66.126 E1.99396
G1 X103.512 Y66.126 E.01683
G1 X148.874 Y111.488 E2.01776
G1 X148.874 Y112.023 E.01683
G1 X102.977 Y66.126 E2.04156
G1 X102.442 Y66.126 E.01683
G1 X148.874 Y112.558 E2.06536
G1 X148.874 Y113.093 E.01683
G1 X101.907 Y66.126 E2.08915
G1 X101.373 Y66.126 E.0168
G1 X148.874 Y113.627 E2.11291
G1 X148.874 Y114.162 E.01683
G1 X101.126 Y66.415 E2.12387
G1 X101.126 Y66.95 E.01683
G1 X148.874 Y114.697 E2.12387
G1 X148.874 Y115.232 E.01683
M73 P5 R69
M73 Q5 S69
G1 X101.126 Y67.485 E2.12387
G1 X101.126 Y68.02 E.01683
G1 X148.874 Y115.767 E2.12387
G1 X148.874 Y116.302 E.01683
G1 X101.126 Y68.555 E2.12387
G1 X101.126 Y69.09 E.01683
M73 P5 R68
G1 X148.874 Y116.837 E2.12387
G1 X148.874 Y117.372 E.01683
G1 X101.126 Y69.625 E2.12387
G1 X101.126 Y70.16 E.01683
G1 X148.874 Y117.907 E2.12387
G1 X148.874 Y118.442 E.01683
G1 X101.126 Y70.695 E2.12387
G1 X101.126 Y71.23 E.01683
G1 X148.874 Y118.977 E2.12387
G1 X148.874 Y119.512 E.01683
G1 X101.126 Y71.765 E2.12387
G1 X101.126 Y72.3 E.01683
M73 Q5 S68
G1 X148.874 Y120.047 E2.12387
G1 X148.874 Y120.582 E.01683
G1 X101.126 Y72.835 E2.12387
G1 X101.126 Y73.37 E.01683
G1 X148.874 Y121.117 E2.12387
G1 X148.874 Y121.652 E.01683
M73 P6 R68
G1 X101.126 Y73.905 E2.12387
G1 X101.126 Y74.44 E.01683
M73 Q6 S68
G1 X148.874 Y122.187 E2.12387
G1 X148.874 Y122.722 E.01683
G1 X101.126 Y74.975 E2.12387
G1 X101.126 Y75.509 E.0168
G1 X148.874 Y123.257 E2.12389
G1 X148.874 Y123.792 E.01683
G1 X101.126 Y76.044 E2.12389
G1 X101.126 Y76.579 E.01683
G1 X148.874 Y124.327 E2.12389
G1 X148.874 Y124.861 E.0168
G1 X101.126 Y77.114 E2.12387
G1 X101.126 Y77.649 E.01683
G1 X148.874 Y125.396 E2.12387
G1 X148.874 Y125.931 E.01683
G1 X101.126 Y78.184 E2.12387
G1 X101.126 Y78.719 E.01683
M73 P6 R67
G1 X148.874 Y126.466 E2.12387
G1 X148.874 Y127.001 E.01683
G1 X101.126 Y79.254 E2.12387
G1 X101.126 Y79.789 E.01683
G1 X148.874 Y127.536 E2.12387
G1 X148.874 Y128.071 E.01683
G1 X101.126 Y80.324 E2.12387
G1 X101.126 Y80.859 E.01683
M73 P7 R67
M73 Q7 S68
G1 X148.874 Y128.606 E2.12387
G1 X148.874 Y129.141 E.01683
M73 Q7 S67
G1 X101.126 Y81.394 E2.12387
G1 X101.126 Y81.929 E.01683
G1 X148.874 Y129.676 E2.12387
G1 X148.874 Y130.211 E.01683
G1 X101.126 Y82.464 E2.12387
G1 X101.126 Y82.999 E.01683
G1 X148.874 Y130.746 E2.12387
G1 X148.874 Y131.281 E.01683
G1 X101.126 Y83.534 E2.12387
G1 X101.126 Y84.069 E.01683
G1 X148.874 Y131.816 E2.12387
G1 X148.874 Y132.351 E.01683
G1 X101.126 Y84.604 E2.12387
G1 X101.126 Y85.139 E.01683
G1 X148.874 Y132.886 E2.12387
G1 X148.874 Y133.421 E.01683
G1 X101.126 Y85.674 E2.12387
G1 X101.126 Y86.209 E.01683
G1 X148.874 Y133.956 E2.12387
G1 X148.874 Y134.491 E.01683
G1 X101.126 Y86.743 E2.12389
G1 X101.126 Y87.278 E.01683
G1 X148.874 Y135.026 E2.12389
G1 X148.874 Y135.56 E.0168
M73 P8 R67
M73 Q8 S67
G1 X101.126 Y87.813 E2.12387
M73 P8 R66
G1 X101.126 Y88.348 E.01683
G1 X148.874 Y136.095 E2.12387
G1 X148.874 Y136.63 E.01683
G1 X101.126 Y88.883 E2.12387
G1 X101.126 Y89.418 E.01683
G1 X148.874 Y137.165 E2.12387
G1 X148.874 Y137.7 E.01683
G1 X101.126 Y89.953 E2.12387
G1 X101.126 Y90.488 E.01683
G1 X148.874 Y138.235 E2.12387
G1 X148.874 Y138.77 E.01683
M73 Q8 S66
G1 X101.126 Y91.023 E2.12387
G1 X101.126 Y91.558 E.01683
G1 X148.874 Y139.305 E2.12387
G1 X148.874 Y139.84 E.01683
G1 X101.126 Y92.093 E2.12387
G1 X101.126 Y92.628 E.01683
G1 X148.874 Y140.375 E2.12387
G1 X148.874 Y140.91 E.01683
G1 X101.126 Y93.163 E2.12387
G1 X101.126 Y93.698 E.01683
G1 X148.874 Y141.445 E2.12387
G1 X148.874 Y141.98 E.01683
G1 X101.126 Y94.233 E2.12387
G1 X101.126 Y94.768 E.01683
M73 P9 R66
M73 Q9 S66
G1 X148.874 Y142.515 E2.12387
G1 X148.874 Y143.05 E.01683
G1 X101.126 Y95.303 E2.12387
G1 X101.126 Y95.838 E.01683
G1 X148.874 Y143.585 E2.12387
G1 X148.874 Y143.874 E.00909
G1 X148.627 Y143.874 E.00777
G1 X101.126 Y96.373 E2.11291
G1 X101.126 Y96.908 E.01683
G1 X148.092 Y143.874 E2.08911
G1 X147.558 Y143.874 E.0168
M73 P9 R65
G1 X101.126 Y97.442 E2.06536
G1 X101.126 Y97.977 E.01683
G1 X147.023 Y143.874 E2.04156
G1 X146.488 Y143.874 E.01683
G1 X101.126 Y98.512 E2.01776
G1 X101.126 Y99.047 E.01683
G1 X145.953 Y143.874 E1.99396
G1 X145.418 Y143.874 E.01683
G1 X101.126 Y99.582 E1.97017
G1 X101.126 Y100.117 E.01683
G1 X144.883 Y143.874 E1.94637
G1 X144.348 Y143.874 E.01683
M73 Q9 S65
G1 X101.126 Y100.652 E1.92257
G1 X101.126 Y101.187 E.01683
G1 X143.813 Y143.874 E1.89877
G1 X143.278 Y143.874 E.01683
M73 P10 R65
M73 Q10 S65
G1 X101.126 Y101.722 E1.87498
G1 X101.126 Y102.257 E.01683
G1 X142.743 Y143.874 E1.85118
G1 X142.208 Y143.874 E.01683
G1 X101.126 Y102.792 E1.82738
G1 X101.126 Y103.327 E.01683
G1 X141.673 Y143.874 E1.80358
G1 X141.138 Y143.874 E.01683
G1 X101.126 Y103.862 E1.77979
G1 X101.126 Y104.397 E.01683
G1 X140.603 Y143.874 E1.75599
G1 X140.068 Y143.874 E.01683
G1 X101.126 Y104.932 E1.73219
G1 X101.126 Y105.467 E.01683
G1 X139.533 Y143.874 E1.70839
G1 X138.998 Y143.874 E.01683
G1 X101.126 Y106.002 E1.6846
G1 X101.126 Y106.537 E.01683
G1 X138.463 Y143.874 E1.6608
G1 X137.928 Y143.874 E.01683
G1 X101.126 Y107.072 E1.637
G1 X101.126 Y107.607 E.01683
G1 X137.393 Y143.874 E1.6132
G1 X136.859 Y143.874 E.0168
M73 P10 R64
G1 X101.126 Y108.141 E1.58945
G1 X101.126 Y108.676 E.01683
G1 X136.324 Y143.874 E1.56565
G1 X135.789 Y143.874 E.01683
G1 X101.126 Y109.211 E1.54186
G1 X101.126 Y109.746 E.01683
G1 X135.254 Y143.874 E1.51806
G1 X134.719 Y143.874 E.01683
M73 P11 R64
G1 X101.126 Y110.281 E1.49426
M73 Q11 S65
G1 X101.126 Y110.816 E.01683
G1 X134.184 Y143.874 E1.47046
G1 X133.649 Y143.874 E.01683
G1 X101.126 Y111.351 E1.44667
G1 X101.126 Y111.886 E.01683
G1 X133.114 Y143.874 E1.42287
G1 X132.579 Y143.874 E.01683
M73 Q11 S64
G1 X101.126 Y112.421 E1.39907
G1 X101.126 Y112.956 E.01683
G1 X132.044 Y143.874 E1.37527
G1 X131.509 Y143.874 E.01683
G1 X101.126 Y113.491 E1.35148
G1 X101.126 Y114.026 E.01683
G1 X130.974 Y143.874 E1.32768
G1 X130.439 Y143.874 E.01683
G1 X101.126 Y114.561 E1.30388
G1 X101.126 Y115.096 E.01683
G1 X129.904 Y143.874 E1.28008
G1 X129.369 Y143.874 E.01683
G1 X101.126 Y115.631 E1.25629
G1 X101.126 Y116.166 E.01683
G1 X128.834 Y143.874 E1.23249
G1 X128.299 Y143.874 E.01683
G1 X101.126 Y116.701 E1.20869
G1 X101.126 Y117.236 E.01683
G1 X127.764 Y143.874 E1.18489
G1 X127.229 Y143.874 E.01683
G1 X101.126 Y117.771 E1.1611
G1 X101.126 Y118.306 E.01683
G1 X126.694 Y143.874 E1.1373
G1 X126.16 Y143.874 E.0168
G1 X101.126 Y118.84 E1.11354
G1 X101.126 Y119.375 E.01683
G1 X125.625 Y143.874 E1.08975
G1 X125.09 Y143.874 E.01683
G1 X101.126 Y119.91 E1.06595
G1 X101.126 Y120.445 E.01683
G1 X124.555 Y143.874 E1.04215
G1 X124.02 Y143.874 E.01683
G1 X101.126 Y120.98 E1.01835
G1 X101.126 Y121.515 E.01683
M73 P12 R64
G1 X123.485 Y143.874 E.99456
G1 X122.95 Y143.874 E.01683
M73 Q12 S64
G1 X101.126 Y122.05 E.97076
G1 X101.126 Y122.585 E.01683
G1 X122.415 Y143.874 E.94696
G1 X121.88 Y143.874 E.01683
G1 X101.126 Y123.12 E.92316
G1 X101.126 Y123.655 E.01683
G1 X121.345 Y143.874 E.89937
G1 X120.81 Y143.874 E.01683
M73 P12 R63
G1 X101.126 Y124.19 E.87557
G1 X101.126 Y124.725 E.01683
G1 X120.275 Y143.874 E.85177
G1 X119.74 Y143.874 E.01683
G1 X101.126 Y125.26 E.82797
G1 X101.126 Y125.795 E.01683
G1 X119.205 Y143.874 E.80418
G1 X118.67 Y143.874 E.01683
G1 X101.126 Y126.33 E.78038
G1 X101.126 Y126.865 E.01683
G1 X118.135 Y143.874 E.75658
G1 X117.6 Y143.874 E.01683
G1 X101.126 Y127.4 E.73278
G1 X101.126 Y127.935 E.01683
G1 X117.065 Y143.874 E.70899
G1 X116.53 Y143.874 E.01683
G1 X101.126 Y128.47 E.68519
G1 X101.126 Y129.005 E.01683
G1 X115.995 Y143.874 E.66139
G1 X115.461 Y143.874 E.0168
G1 X101.126 Y129.539 E.63764
G1 X101.126 Y130.074 E.01683
G1 X114.926 Y143.874 E.61384
G1 X114.391 Y143.874 E.01683
G1 X101.126 Y130.609 E.59004
G1 X101.126 Y131.144 E.01683
G1 X113.856 Y143.874 E.56625
G1 X113.321 Y143.874 E.01683
G1 X101.126 Y131.679 E.54245
G1 X101.126 Y132.214 E.01683
G1 X112.786 Y143.874 E.51865
M73 Q12 S63
G1 X112.251 Y143.874 E.01683
G1 X101.126 Y132.749 E.49485
G1 X101.126 Y133.284 E.01683
G1 X111.716 Y143.874 E.47106
G1 X111.181 Y143.874 E.01683
G1 X101.126 Y133.819 E.44726
G1 X101.126 Y134.354 E.01683
G1 X110.646 Y143.874 E.42346
G1 X110.111 Y143.874 E.01683
G1 X101.126 Y134.889 E.39966
G1 X101.126 Y135.424 E.01683
